images_sukapura_svg/cmd/32/listbox.svg

<svg height="32" viewBox="0 0 32 32" width="32" xmlns="http://www.w3.org/2000/svg">/&amp;amp;gt;<rect fill="#98989d" height="26" rx="1.5" width="26" x="3" y="3"/><path d="m4 4v24h24v-24z" fill="#fff" stroke-width="1.309307"/><g fill="#69696e"><rect height="1" ry=".380151" width="20" x="6" y="10"/><rect height="1" ry=".452061" width="11" x="6" y="14"/><rect height="1" ry=".404121" width="16" x="6" y="6"/><rect height="1" ry=".380151" width="20" x="6" y="18"/><rect height="1" ry=".452061" width="11" x="6" y="22"/><rect height="1" ry=".380151" width="20" x="6" y="26"/></g><g fill="#bababa" transform="translate(2 3)"><path d="m2 5h24v.5h-24z"/><path d="m2 9h24v.5h-24z"/><path d="m2 13h24v.5h-24z"/><path d="m2 17h24v.5h-24z"/><path d="m2 21h24v.5h-24z"/></g></svg>

<?xml version="1.0" encoding="UTF-8" standalone="no"?>
<svg
   xmlns:dc="http://purl.org/dc/elements/1.1/"
   xmlns:cc="http://creativecommons.org/ns#"
   xmlns:rdf="http://www.w3.org/1999/02/22-rdf-syntax-ns#"
   xmlns:svg="http://www.w3.org/2000/svg"
   xmlns="http://www.w3.org/2000/svg"
   xmlns:sodipodi="http://sodipodi.sourceforge.net/DTD/sodipodi-0.dtd"
   xmlns:inkscape="http://www.inkscape.org/namespaces/inkscape"
   viewBox="0 0 32 32"
   version="1.1"
   id="svg20"
   sodipodi:docname="listbox.svg"
   width="32"
   height="32"
   inkscape:export-filename="/home/rizmut/Dokumen/Rizmut/Github/libreoffice-style-sukapura/images_sukapura/cmd/32/listbox.png"
   inkscape:export-xdpi="96"
   inkscape:export-ydpi="96"
   inkscape:version="0.92.3 (unknown)"><metadata
   id="metadata26">
  <rdf:RDF>
    <cc:Work
       rdf:about="">
      <dc:format>image/svg+xml</dc:format>
      <dc:type
         rdf:resource="http://purl.org/dc/dcmitype/StillImage" />
      <dc:title></dc:title>
    </cc:Work>
  </rdf:RDF>
</metadata>
<defs
   id="defs24" />
<sodipodi:namedview
   pagecolor="#ffffff"
   bordercolor="#666666"
   borderopacity="1"
   objecttolerance="10"
   gridtolerance="10"
   guidetolerance="10"
   inkscape:pageopacity="0"
   inkscape:pageshadow="2"
   inkscape:window-width="1366"
   inkscape:window-height="706"
   id="namedview22"
   showgrid="true"
   inkscape:zoom="14.75"
   inkscape:cx="20.050634"
   inkscape:cy="10.168302"
   inkscape:window-x="-1"
   inkscape:window-y="-1"
   inkscape:window-maximized="0"
   inkscape:current-layer="g18">
  <inkscape:grid
     type="xygrid"
     id="grid833" />
</sodipodi:namedview>
/&amp;gt;<rect
   height="26"
   rx="1.5"
   width="26"
   x="3"
   y="3"
   id="rect2"
   style="fill:#98989d" />
<path
   d="M 4,4 V 28 H 28 V 4 Z"
   id="path4"
   inkscape:connector-curvature="0"
   style="fill:#ffffff;stroke-width:1.30930698"
   sodipodi:nodetypes="ccccc" />
<g
   id="g12"
   style="fill:#69696e"
   transform="translate(2,3)">
  <rect
     height="1"
     ry="0.38015139"
     width="20"
     x="4"
     y="7"
     id="rect6" />
  <rect
     height="1"
     ry="0.45206055"
     width="11"
     x="4"
     y="11"
     id="rect8" />
  <rect
     height="1"
     ry="0.4041211"
     width="16"
     x="4"
     y="3"
     id="rect10" />
  <rect
     id="rect839"
     y="15"
     x="4"
     width="20"
     ry="0.38015139"
     height="1" />
  <rect
     id="rect860"
     y="19"
     x="4"
     width="11"
     ry="0.45206055"
     height="1" />
  <rect
     height="1"
     ry="0.38015139"
     width="20"
     x="4"
     y="23"
     id="rect862" />
</g>
<g
   id="g18"
   style="fill:#bababa"
   transform="translate(2,3)">
  <path
     d="M 2,5 H 26 V 5.5 H 2 Z"
     id="path14"
     inkscape:connector-curvature="0"
     sodipodi:nodetypes="ccccc" />
  <path
     d="M 2,9 H 26 V 9.5 H 2 Z"
     id="path16"
     inkscape:connector-curvature="0"
     sodipodi:nodetypes="ccccc" />
  <path
     sodipodi:nodetypes="ccccc"
     inkscape:connector-curvature="0"
     id="path835"
     d="m 2,13 h 24 v 0.5 H 2 Z" />
  <path
     sodipodi:nodetypes="ccccc"
     inkscape:connector-curvature="0"
     id="path837"
     d="m 2,17 h 24 v 0.5 H 2 Z" />
  <path
     d="m 2,21 h 24 v 0.5 H 2 Z"
     id="path864"
     inkscape:connector-curvature="0"
     sodipodi:nodetypes="ccccc" />
</g>
</svg>
